X: 31215
T: Paddy Fahey's
R: reel
M: 4/4
K: Cmajor
c2 GF EGcA|_B2 fB FBfB|c2 GF EGFE|F~_B,3 =BcdB|
G~c3 GcEc|_B2 FB ABfB|gfdc (3Bcd GE|F~_B,3 =BcdB||
c3 a gceg|fefd BGAB|c2 gc BcAG|F2EF DEFD|
g2 ^fa gceg|=fede f2gf|e~c3 GcAc|BGFD C2 EG||

